icons/production/amazon.svg

<?xml version="1.0" encoding="UTF-8" standalone="no"?>
<svg width="24px" height="24px" viewBox="0 0 24 24" version="1.1" xmlns="http://www.w3.org/2000/svg">
<!--Generator: Sketch 3.8.3 (29802) - http://www.bohemiancoding.com/sketch-->
    <title>
        amazon
    </title>
    <desc>
        Created with Sketch.
    </desc>
    <g id="Page-1" stroke="none" stroke-width="1" fill="none" fill-rule="evenodd">
        <path d="M15.8288623,17.0874 C15.6505209,17.2465 15.3935083,17.2572 15.1928617,17.1498 C14.2985425,16.4102 14.1383869,16.0683 13.6496813,15.3643 C12.1721104,16.8625 11.1254726,17.3118 9.21165356,17.3118 C6.94509036,17.3118 5.18246464,15.9199 5.18246464,13.136 C5.18246464,10.961 6.36599832,9.48213 8.0531781,8.75709 C9.51373874,8.119 11.5536928,8.00309 13.1146572,7.82904 L13.1146572,7.48107 C13.1146572,6.8431 13.1650951,6.08898 12.7876142,5.53814 C12.4601694,5.04502 11.8303983,4.84203 11.276686,4.84203 C10.249942,4.84203 9.33690447,5.3657 9.11296798,6.4509 C9.06615714,6.69233 8.88929273,6.93111 8.64508058,6.94342 L6.03619236,6.66236 C5.81583274,6.61295 5.57071633,6.43711 5.63452738,6.10232 C6.23389508,2.9518 9.09238086,2 11.6541669,2 C12.9638457,2 14.6760234,2.34798 15.7086953,3.33405 C17.0180727,4.55207 16.8921788,6.17608 16.8921788,7.94507 L16.8921788,12.1192 C16.8921788,13.3748 17.4161508,13.9256 17.908172,14.6023 C18.0798821,14.8459 18.1186651,15.1359 17.8995313,15.3138 L15.8350916,17.0934 L15.8288623,17.0874 L15.8288623,17.0874 Z M13.1146572,10.555 L13.1146572,9.9751 C11.1674707,9.9751 9.11085803,10.3901 9.11085803,12.672 C9.11085803,13.8318 9.71529967,14.6151 10.7476903,14.6151 C11.5032549,14.6151 12.1831626,14.1512 12.6110814,13.3971 C13.1400771,12.469 13.1146572,11.5991 13.1146572,10.555 L13.1146572,10.555 Z M20.0779084,19.5364 C17.8883787,21.1446 14.7138016,22 11.9803055,22 C8.14912074,22 4.69934537,20.5906 2.08849791,18.2442 C1.8835711,18.0601 2.06640367,17.8083 2.3127961,17.951 C5.12946459,19.5824 8.61257724,20.5649 12.2102905,20.5649 C14.6371399,20.5649 17.3050265,20.0636 19.7597072,19.0274 C20.1298535,18.871 20.4402177,19.2702 20.0779084,19.5364 L20.0779084,19.5364 Z M20.9892078,18.5012 C20.7089857,18.1442 19.1376726,18.3319 18.4319431,18.416 C18.2181344,18.4415 18.184978,18.2558 18.3777876,18.121 C19.6311005,17.2448 21.6846889,17.4979 21.9234152,17.7911 C22.1640504,18.0871 21.8605184,20.1364 20.6857762,21.1145 C20.5051239,21.265 20.3333134,21.1847 20.4133912,20.9859 C20.6776378,20.329 21.2694298,18.8581 20.9892078,18.5012 L20.9892078,18.5012 Z" id="amazon" fill="#000"/>
    </g>
</svg>

<svg xmlns="http://www.w3.org/2000/svg" viewBox="0 0 24 24">
    <path fill-rule="evenodd" d="M15.829 17.087a.56.56 0 0 1-.636.063c-.894-.74-1.055-1.082-1.543-1.786-1.478 1.498-2.525 1.948-4.438 1.948-2.267 0-4.03-1.392-4.03-4.176 0-2.175 1.184-3.654 2.871-4.379 1.46-.638 3.5-.754 5.062-.928v-.348c0-.638.05-1.392-.327-1.943-.328-.493-.958-.696-1.511-.696-1.027 0-1.94.524-2.164 1.609-.047.241-.224.48-.468.492l-2.609-.28c-.22-.05-.465-.226-.401-.56C6.234 2.951 9.092 2 11.655 2c1.309 0 3.021.348 4.054 1.334 1.31 1.218 1.183 2.842 1.183 4.611v4.174c0 1.256.524 1.807 1.016 2.483.172.244.21.534-.008.712l-2.065 1.78-.006-.007zm-2.714-6.532v-.58c-1.948 0-4.004.415-4.004 2.697 0 1.16.604 1.943 1.637 1.943.755 0 1.435-.464 1.863-1.218.53-.928.504-1.798.504-2.842zm6.963 8.981C17.888 21.145 14.714 22 11.98 22c-3.83 0-7.28-1.41-9.892-3.756-.204-.184-.022-.436.225-.293 2.816 1.631 6.3 2.614 9.897 2.614 2.427 0 5.095-.501 7.55-1.538.37-.156.68.243.318.51zm.911-1.035c-.28-.357-1.851-.17-2.557-.085-.214.026-.247-.16-.054-.295 1.253-.876 3.307-.623 3.545-.33.241.296-.062 2.345-1.237 3.323-.18.151-.353.07-.273-.128.265-.657.856-2.128.576-2.485z"/>
</svg>
